X: 1
T: Hot Time
I: Hot TimeS-HGsquare
%C: S-H
M: C|
Z: Transcribed to abc by Mary Lou Knack
R: square
K: G
z2D2 G2A2|: "G"B2B2 B3 ^A/B/| c2B2 ^A2B2| G2D2 G2B2|\
"G"d2d2 d3 ^c/d/| e2d2 ^c2d2|
B2D2 E2G2| B2B2 B3 ^A/B/|\
"G"c2B2 ^A2B2| G2G2 F2G2| "D7"B2A3 D/D/ B2| A3 D/D/ "G"[B,4G4] :|
